static/assets/images/icons/maximize.svg

<svg width="256" height="256" viewBox="0 0 256 256" fill="none" xmlns="http://www.w3.org/2000/svg">
<path d="M106.766 150.267C111.207 154.708 111.207 161.909 106.766 166.35L78.4149 194.701H98.4128C104.694 194.701 109.785 199.793 109.785 206.074V207.59C109.785 213.871 104.694 218.963 98.4128 218.963H48.3727C42.0917 218.963 37 213.871 37 207.59V157.55C37 151.269 42.0917 146.177 48.3727 146.177H49.8891C56.1701 146.177 61.2618 151.269 61.2618 157.55V177.548L89.6129 149.197C94.0542 144.756 101.255 144.756 105.696 149.197L106.766 150.267Z" fill="black"/>
<path d="M218.963 48.3727C218.963 42.0917 213.871 37 207.59 37H157.55C151.269 37 146.177 42.0917 146.177 48.3727V49.8892C146.177 56.1701 151.269 61.2618 157.55 61.2618H177.548L149.197 89.6129C144.756 94.0542 144.756 101.255 149.197 105.696L150.267 106.766C154.708 111.207 161.909 111.207 166.35 106.766L194.701 78.4149V98.4128C194.701 104.694 199.793 109.785 206.074 109.785H207.59C213.871 109.785 218.963 104.694 218.963 98.4128V48.3727Z" fill="black"/>
<path d="M194.701 177.548L166.35 149.197C161.909 144.756 154.708 144.756 150.267 149.197L149.197 150.267C144.756 154.708 144.756 161.909 149.197 166.35L177.548 194.701H157.55C151.269 194.701 146.177 199.793 146.177 206.074V207.59C146.177 213.871 151.269 218.963 157.55 218.963H207.59C213.871 218.963 218.963 213.871 218.963 207.59V157.55C218.963 151.269 213.871 146.177 207.59 146.177H206.074C199.793 146.177 194.701 151.269 194.701 157.55V177.548Z" fill="black"/>
<path d="M109.785 48.3727C109.785 42.0917 104.694 37 98.4128 37H48.3727C42.0917 37 37 42.0917 37 48.3727V98.4128C37 104.694 42.0917 109.785 48.3727 109.785H49.8891C56.1701 109.785 61.2618 104.694 61.2618 98.4128V78.4149L89.6129 106.766C94.0542 111.207 101.255 111.207 105.696 106.766L106.766 105.696C111.207 101.255 111.207 94.0542 106.766 89.6129L78.4149 61.2618H98.4128C104.694 61.2618 109.785 56.1701 109.785 49.8892V48.3727Z" fill="black"/>
</svg>

<svg xmlns="http://www.w3.org/2000/svg" fill="none" viewBox="0 0 256 256"><path fill="#000" d="M106.766 150.267c4.441 4.441 4.441 11.642 0 16.083l-28.351 28.351h19.998c6.281 0 11.372 5.092 11.372 11.373v1.516c0 6.281-5.091 11.373-11.372 11.373h-50.04c-6.281 0-11.373-5.092-11.373-11.373v-50.04c0-6.281 5.092-11.373 11.373-11.373h1.516c6.281 0 11.373 5.092 11.373 11.373v19.998l28.35-28.351c4.442-4.441 11.643-4.441 16.084 0zM218.963 48.373c0-6.281-5.092-11.373-11.373-11.373h-50.04c-6.281 0-11.373 5.092-11.373 11.373v1.516c0 6.281 5.092 11.373 11.373 11.373h19.998l-28.351 28.35c-4.441 4.442-4.441 11.643 0 16.084l1.07 1.07c4.441 4.441 11.642 4.441 16.083 0l28.351-28.351v19.998c0 6.281 5.092 11.372 11.373 11.372h1.516c6.281 0 11.373-5.091 11.373-11.372zm-24.262 129.175-28.351-28.351c-4.441-4.441-11.642-4.441-16.083 0l-1.07 1.07c-4.441 4.441-4.441 11.642 0 16.083l28.351 28.351H157.55c-6.281 0-11.373 5.092-11.373 11.373v1.516c0 6.281 5.092 11.373 11.373 11.373h50.04c6.281 0 11.373-5.092 11.373-11.373v-50.04c0-6.281-5.092-11.373-11.373-11.373h-1.516c-6.281 0-11.373 5.092-11.373 11.373zM109.785 48.373c0-6.281-5.091-11.373-11.372-11.373h-50.04C42.092 37 37 42.092 37 48.373v50.04c0 6.281 5.092 11.372 11.373 11.372h1.516c6.281 0 11.373-5.091 11.373-11.372V78.415l28.35 28.351c4.442 4.441 11.643 4.441 16.084 0l1.07-1.07c4.441-4.441 4.441-11.642 0-16.083L78.415 61.262h19.998c6.281 0 11.372-5.092 11.372-11.373z"/></svg>
